packages/ffe-icons/icons/open/300/md/water_full.svg

<svg xmlns="http://www.w3.org/2000/svg" height="24" viewBox="0 -960 960 960" width="24"><path d="M443.231-610.001q-55.77 0-108.962 15.308t-99.346 45.538l42.384 378.385q.77 4.616 4.039 7.693 3.27 3.077 8.27 3.077h381.153q5 0 8.269-3.077 3.27-3.077 4.039-7.693l44.385-399.231h-29.154q-37.231 0-68.231-5.5-31-5.5-84.615-21.115-24.154-7.385-50.116-10.385-25.961-3-52.115-3Zm-215.616-3.844q50.616-27.77 105.116-41.962 54.5-14.192 111.5-14.192 29.615 0 58.923 3.807 29.307 3.808 57.923 11.808 51.538 14.385 78.615 19.385 27.077 5 58.231 5h36.231L752.308-800H207.307l20.308 186.155Zm61.386 513.844q-28.308 0-48.692-18.077-20.385-18.077-23-46l-69-620.768q-3.846-30.384 16.807-52.768 20.654-22.385 51.038-22.385h527.692q30.384 0 51.038 22.385 20.653 22.384 16.807 52.768l-68.615 620.768q-2.616 27.923-23 46-20.385 18.077-48.692 18.077H289.001ZM443.231-160h239.846-405.77 165.924Z"/></svg>

<svg xmlns="http://www.w3.org/2000/svg" height="24" viewBox="0 -960 960 960" width="24"><path d="M443.23-610q-55.77 0-108.96 15.31-53.19 15.3-99.35 45.54l42.39 378.38q.77 4.62 4.04 7.69 3.27 3.08 8.27 3.08h381.15q5 0 8.27-3.08 3.27-3.07 4.04-7.69L727.46-570h-29.15q-37.23 0-68.23-5.5-31-5.5-84.62-21.12Q521.31-604 495.35-607q-25.97-3-52.12-3Zm-215.61-3.85q50.61-27.76 105.11-41.96Q387.23-670 444.23-670q29.62 0 58.92 3.81 29.31 3.81 57.93 11.81Q612.62-640 639.69-635q27.08 5 58.23 5h36.23l18.16-170h-545l20.31 186.15ZM289-100q-28.31 0-48.69-18.08-20.39-18.08-23-46l-69-620.77q-3.85-30.38 16.81-52.76Q185.77-860 216.15-860h527.7q30.38 0 51.03 22.39 20.66 22.38 16.81 52.76l-68.61 620.77q-2.62 27.92-23 46Q699.69-100 671.38-100H289Zm154.23-60H683.08 277.31 443.23Z"/></svg>
